X:180
T: IN DIESER WOELBUNG DES BUSENS
N: F0316
O: Europa, Mitteleuropa, Deutschland
R: Jugend - Lied, Belehrung, Moral
M: 6/8
L: 1/16
K: E
G2 | B4G2E2E2E2 | F3EF2G4
G2 | c2G2G2e3dc2 | B6G4
G2 | B,2B,2B,2B,3GE2 | E2E2E2c4
e2 | B3AG2F2F2B2 | G6E4

